X: 5
T: Will You Come Home With Me
R: jig
M: 6/8
L: 1/8
K: Gmaj
|: Bc |d2 g fdc | B2 d cAF | GDG ADA | BDB ABc |
d2 g fdc | B2 d cAF | GDG AGF | GDB G :|
|: Bc |d2 B c2 A | B2 d cAF | GDG ADA | BDB ABc |
d2 B cc/B/A | BGd cAF | G2 G AGF | GDB G :|


Tune 1220	Setting 25098

